X:8
T:The Footing of the Turf 
B:Terry "Cuz" Teahan "Sliabh Luachra on Parade" 1980
Z:Patrick Cavanagh
M:6/8
L:1/8
R:Jig
K:D
e | fAA AFA | BAF A3 | B/c/dB AFA | Bcd efg | 
fAA AFA | BAF A3 | B/c/dB AFA | Bdc d2 :| 
| e | fgf efe | dBA d2e | faa afe | faa b2a | 
fgf efe | dBA d2e | fAA AFA | Bdc d2 :|| 

